assets/images/icons/message-box.svg

<svg width="20" height="21" viewBox="0 0 20 21" fill="none" xmlns="http://www.w3.org/2000/svg">
<g id="fi_134718" clip-path="url(#clip0_509_11170)">
<path id="Vector" d="M9.99997 1C15.514 1 20 5.03733 20 10C20 11.7347 19.4513 13.415 18.4106 14.868C18.6076 17.047 19.1356 18.6647 19.9023 19.431C20.0036 19.5323 20.029 19.6873 19.965 19.8153C19.9083 19.9297 19.7916 20 19.6666 20C19.6513 20 19.636 19.999 19.6203 19.9967C19.4853 19.9777 16.3493 19.5263 14.081 18.217C12.793 18.7367 11.421 19 9.99997 19C4.48597 19 -2.67029e-05 14.9627 -2.67029e-05 10C-2.67029e-05 5.03733 4.48597 1 9.99997 1ZM14.6666 11.3333C15.402 11.3333 16 10.7353 16 10C16 9.26467 15.402 8.66667 14.6666 8.66667C13.9313 8.66667 13.3333 9.26467 13.3333 10C13.3333 10.7353 13.9313 11.3333 14.6666 11.3333ZM9.99997 11.3333C10.7353 11.3333 11.3333 10.7353 11.3333 10C11.3333 9.26467 10.7353 8.66667 9.99997 8.66667C9.26464 8.66667 8.66664 9.26467 8.66664 10C8.66664 10.7353 9.26464 11.3333 9.99997 11.3333ZM5.33331 11.3333C6.06864 11.3333 6.66664 10.7353 6.66664 10C6.66664 9.26467 6.06864 8.66667 5.33331 8.66667C4.59797 8.66667 3.99997 9.26467 3.99997 10C3.99997 10.7353 4.59797 11.3333 5.33331 11.3333Z" fill="#7FB51F"/>
</g>
<defs>
<clipPath id="clip0_509_11170">
<rect width="20" height="20" fill="white" transform="matrix(-1 0 0 1 20 0.5)"/>
</clipPath>
</defs>
</svg>

<svg xmlns="http://www.w3.org/2000/svg" width="20" height="21" fill="none"><g clip-path="url(#a)"><path fill="#7FB51F" d="M10 1c5.514 0 10 4.037 10 9 0 1.735-.549 3.415-1.59 4.868.198 2.179.726 3.797 1.492 4.563a.333.333 0 0 1-.282.566c-.135-.02-3.27-.47-5.539-1.78A10.9 10.9 0 0 1 10 19c-5.514 0-10-4.037-10-9s4.486-9 10-9m4.667 10.333c.735 0 1.333-.598 1.333-1.333a1.335 1.335 0 0 0-2.667 0c0 .735.598 1.333 1.334 1.333m-4.667 0c.735 0 1.333-.598 1.333-1.333S10.735 8.667 10 8.667 8.667 9.265 8.667 10s.598 1.333 1.333 1.333m-4.667 0c.736 0 1.334-.598 1.334-1.333A1.335 1.335 0 0 0 4 10c0 .735.598 1.333 1.333 1.333"/></g><defs><clipPath id="a"><path fill="#fff" d="M20 .5H0v20h20z"/></clipPath></defs></svg>
